X:1
T:The Dawn Chorus
R:jig
M:6/8
L:1/8
K:G
|:D2B BAB|dBB B2d|D2A ABA|DAB AGE|
|D2B BAB|ded BAG|ABc BAB|1 GEE E2G:|2 GEE E2f|]
|:gee eag|faf def|gfg aga|bge ~e2f|
|gag gfe|ded dBd|~g2g BAB|1 dBG G2f:|2 d2d DEG|]